X:1
L:1/4
Q:1/4=120
M:3/4
K:C
""^A""""C"" G c E |""Dm"" [EG] [DF]2 |""G7"" F G D |""C"" E3 |""G7/B"" G A B |""Am"" c e2 |""Dm"" d A c |""G"" B2 A | 
""^B""""C"" G c E |""Dm"" [EG] [DF]2 |""G7"" F d B |""Am"" c2 B |""F"" A F2 |""Em"" G E2 |""G7"" F D B, |""C"" C3 | 
""^C""""Am"" c e d/c/ |""Em"" B G E |""F"" F A G/F/ |""C"" E3 |""Am"" c e d/c/ |""E"" B ^G E |""B7"" ^F A ^G/F/ | 
""E"" E3 |""^D""""Am"" A c B/A/ |""G"" B d c/B/ |""F"" c f e |""G"" d2-""E7/G"" d |""Am"" c A2 |""Em"" G E2 | 
""G7"" F D B, |""C"" C3 |]
